packages/assets/static/images/icons/mail.svg

<svg width="24" height="24" viewBox="0 0 24 24" xmlns="http://www.w3.org/2000/svg">
<path d="M21 4.5H3C2.80109 4.5 2.61032 4.57902 2.46967 4.71967C2.32902 4.86032 2.25 5.05109 2.25 5.25V18C2.25 18.3978 2.40804 18.7794 2.68934 19.0607C2.97064 19.342 3.35218 19.5 3.75 19.5H20.25C20.6478 19.5 21.0294 19.342 21.3107 19.0607C21.592 18.7794 21.75 18.3978 21.75 18V5.25C21.75 5.05109 21.671 4.86032 21.5303 4.71967C21.3897 4.57902 21.1989 4.5 21 4.5ZM12 12.4828L4.92844 6H19.0716L12 12.4828ZM9.25406 12L3.75 17.0447V6.95531L9.25406 12ZM10.3641 13.0172L11.4891 14.0531C11.6274 14.1801 11.8084 14.2506 11.9963 14.2506C12.1841 14.2506 12.3651 14.1801 12.5034 14.0531L13.6284 13.0172L19.0659 18H4.92844L10.3641 13.0172ZM14.7459 12L20.25 6.95438V17.0456L14.7459 12Z"/>
</svg>

<svg viewBox="0 0 24 24" xmlns="http://www.w3.org/2000/svg" aria-hidden="true" fill="currentColor"><path d="M21 4.5H3a.75.75 0 0 0-.75.75V18a1.5 1.5 0 0 0 1.5 1.5h16.5a1.5 1.5 0 0 0 1.5-1.5V5.25A.75.75 0 0 0 21 4.5m-9 7.983L4.928 6h14.144zM9.254 12 3.75 17.045V6.955zm1.11 1.017 1.125 1.036a.75.75 0 0 0 1.014 0l1.125-1.036L19.066 18H4.928zM14.746 12l5.504-5.046v10.092z"/></svg>
